icon/fa/coins.svg

<svg xmlns="http://www.w3.org/2000/svg" viewBox="0 0 512 512"><!--! Font Awesome Free 6.1.2 by @fontawesome - https://fontawesome.com License - https://fontawesome.com/license/free (Icons: CC BY 4.0, Fonts: SIL OFL 1.1, Code: MIT License) Copyright 2022 Fonticons, Inc.--><path d="M512 80c0 18.01-14.3 34.6-38.4 48-29.1 16.1-72.4 27.5-122.3 30.9-3.6-1.7-7.4-3.4-11.2-5C300.6 137.4 248.2 128 192 128c-8.3 0-16.4.2-24.5.6l-1.1-.6C142.3 114.6 128 98.01 128 80c0-44.18 85.1-80 192-80 106 0 192 35.82 192 80zm-351.3 81.1c10.2-.7 20.6-1.1 31.3-1.1 62.2 0 117.4 12.3 152.5 31.4 24.8 13.5 39.5 30.3 39.5 48.6 0 3.1-.7 7.9-2.1 11.7-4.6 13.2-17.8 25.3-35 35.6-.1 0-.3.1-.4.2-.3.2-.6.3-.9.5-35 19.4-90.8 32-153.6 32-59.6 0-112.94-11.3-148.16-29.1-1.87-1-3.69-2.8-5.45-2.9C14.28 274.6 0 258 0 240c0-34.8 53.43-64.5 128-75.4 10.5-1.6 21.4-2.8 32.7-3.5zm231.2 25.5c28.3-4.4 54.2-11.4 76.2-20.5 16.3-6.8 31.4-15.2 43.9-25.5V176c0 19.3-16.5 37.1-43.8 50.9-14.7 7.4-32.4 13.6-52.4 18.4.1-1.7.2-3.5.2-5.3 0-21.9-10.6-39.9-24.1-53.4zM384 336c0 18-14.3 34.6-38.4 48-1.8.1-3.6 1.9-5.4 2.9C304.9 404.7 251.6 416 192 416c-62.8 0-118.58-12.6-153.61-32C14.28 370.6 0 354 0 336v-35.4c12.45 10.3 27.62 18.7 43.93 25.5C83.44 342.6 135.8 352 192 352c56.2 0 108.6-9.4 148.1-25.9 7.8-3.2 15.3-6.9 22.4-10.9 6.1-3.4 11.8-7.2 17.2-11.2 1.5-1.1 2.9-2.3 4.3-3.4V336zm32-57.9c18.1-5 36.5-9.5 52.1-16 16.3-6.8 31.4-15.2 43.9-25.5V272c0 10.5-5 21-14.9 30.9-16.3 16.3-45 29.7-81.3 38.4.1-1.7.2-3.5.2-5.3v-57.9zM192 448c56.2 0 108.6-9.4 148.1-25.9 16.3-6.8 31.4-15.2 43.9-25.5V432c0 44.2-86 80-192 80C85.96 512 0 476.2 0 432v-35.4c12.45 10.3 27.62 18.7 43.93 25.5C83.44 438.6 135.8 448 192 448z"/></svg>

<svg xmlns="http://www.w3.org/2000/svg" viewBox="0 0 512 512" height="1em" width="1em">
<!--! Font Awesome Free 6.1.2 by @fontawesome - https://fontawesome.com License - https://fontawesome.com/license/free (Icons: CC BY 4.0, Fonts: SIL OFL 1.1, Code: MIT License) Copyright 2022 Fonticons, Inc.-->
  <path d="M512 80C512 98.01 497.7 114.6 473.6 128C444.5 144.1 401.2 155.5 351.3 158.9C347.7 157.2 343.9 155.5 340.1 153.9C300.6 137.4 248.2 128 192 128C183.7 128 175.6 128.2 167.5 128.6L166.4 128C142.3 114.6 128 98.01 128 80C128 35.82 213.1 0 320 0C426 0 512 35.82 512 80V80zM160.7 161.1C170.9 160.4 181.3 160 192 160C254.2 160 309.4 172.3 344.5 191.4C369.3 204.9 384 221.7 384 240C384 243.1 383.3 247.9 381.9 251.7C377.3 264.9 364.1 277 346.9 287.3C346.9 287.3 346.9 287.3 346.9 287.3C346.8 287.3 346.6 287.4 346.5 287.5L346.5 287.5C346.2 287.7 345.9 287.8 345.6 288C310.6 307.4 254.8 320 192 320C132.4 320 79.06 308.7 43.84 290.9C41.97 289.9 40.15 288.1 38.39 288C14.28 274.6 0 258 0 240C0 205.2 53.43 175.5 128 164.6C138.5 163 149.4 161.8 160.7 161.1L160.7 161.1zM391.9 186.6C420.2 182.2 446.1 175.2 468.1 166.1C484.4 159.3 499.5 150.9 512 140.6V176C512 195.3 495.5 213.1 468.2 226.9C453.5 234.3 435.8 240.5 415.8 245.3C415.9 243.6 416 241.8 416 240C416 218.1 405.4 200.1 391.9 186.6V186.6zM384 336C384 354 369.7 370.6 345.6 384C343.8 384.1 342 385.9 340.2 386.9C304.9 404.7 251.6 416 192 416C129.2 416 73.42 403.4 38.39 384C14.28 370.6 .0003 354 .0003 336V300.6C12.45 310.9 27.62 319.3 43.93 326.1C83.44 342.6 135.8 352 192 352C248.2 352 300.6 342.6 340.1 326.1C347.9 322.9 355.4 319.2 362.5 315.2C368.6 311.8 374.3 308 379.7 304C381.2 302.9 382.6 301.7 384 300.6L384 336zM416 278.1C434.1 273.1 452.5 268.6 468.1 262.1C484.4 255.3 499.5 246.9 512 236.6V272C512 282.5 507 293 497.1 302.9C480.8 319.2 452.1 332.6 415.8 341.3C415.9 339.6 416 337.8 416 336V278.1zM192 448C248.2 448 300.6 438.6 340.1 422.1C356.4 415.3 371.5 406.9 384 396.6V432C384 476.2 298 512 192 512C85.96 512 .0003 476.2 .0003 432V396.6C12.45 406.9 27.62 415.3 43.93 422.1C83.44 438.6 135.8 448 192 448z"/>
</svg>
